X:10
T:??
R:
N:
B:
O:
Z:
M:6/8
L:1/8
Q:1/4=130
K:D
F | DEF DFE | (F/ E/ G)(F F)GB | FBG FGB-|BcA AGF-|
FF2 ABc |d2d A2B |BGA (A/ G/ A)-B |c2c Bc2 :|
d=g(d d)=gd | df=g aba | ac(a a)ca | ade ff2 |
dg(d d)=gd | df=g aba | ac(a a)ca/ c/  | a2e/ d/  cd2 |

